X:1
T:Charlie Hunter's
R:jig
M:6/8
L:1/8
K:D
|:DFA GBd|Adf a2g|fef dcd|ecA GFE|
|DFA GBd|Adf a2g|fef gec|1 edc d2A:|2 edc dfg|]
|:afd dcd|BGF G2F|E^GB e2d|cAA Aag|
|fdA DFA|GBd g3|fef gec|1 edc dfg:|2 edc d2A|]